public/cards/9-D.svg

<?xml version="1.0" encoding="UTF-8"?>
<svg width="360px" height="540px" viewBox="0 0 360 540" version="1.1" xmlns="http://www.w3.org/2000/svg" xmlns:xlink="http://www.w3.org/1999/xlink">
    <!-- Generator: Sketch 55.2 (78181) - https://sketchapp.com -->
    <title>9-D</title>
    <desc>Created with Sketch.</desc>
    <g id="Page-1" stroke="none" stroke-width="1" fill="none" fill-rule="evenodd">
        <g id="English_pattern_playing_cards_deck" transform="translate(-3120.000000, -1141.000000)" fill-rule="nonzero">
            <g id="9-D" transform="translate(3120.000000, 1140.637820)">
                <rect id="rect6472-50" stroke="#000000" stroke-width="0.99999976" fill="#FFFFFF" x="0.5" y="0.86218" width="359" height="539" rx="29.944447"></rect>
                <path d="M30,80.36208 C35.54,80.36208 40,75.90208 40,70.36208 L40,50.36208 L40,40.36208 C40,34.82208 35.54,30.36208 30,30.36208 C24.46,30.36208 20,34.82208 20,40.36208 L20,50.36208 C20,55.90208 24.46,60.36208 30,60.36208 C31.8226,60.36208 33.5315,59.86348 35,59.01828 L35,70.36208 C35,73.13208 32.77,75.36208 30,75.36208 C27.23,75.36208 25,73.13208 25,70.36208 L25,69.36208 L20,69.36208 L20,70.36208 C20,75.90208 24.46,80.36208 30,80.36208 Z M30,55.36208 C27.23,55.36208 25,53.13208 25,50.36208 L25,40.36208 C25,37.59208 27.23,35.36208 30,35.36208 C32.77,35.36208 35,37.59208 35,40.36208 L35,50.36208 C35,53.13208 32.77,55.36208 30,55.36208 Z" id="rect3163-7-1-7-3-0-78-9" fill="#FF5555"></path>
                <path d="M330,460.36208 C324.46,460.36208 320,464.82208 320,470.36208 L320,490.3621 L320,500.3621 C320,505.9021 324.46,510.3621 330,510.3621 C335.54,510.3621 340,505.9021 340,500.3621 L340,490.3621 C340,484.8221 335.54,480.36208 330,480.36208 C328.1774,480.36208 326.4685,480.86068 325,481.70588 L325,470.36208 C325,467.59208 327.23,465.36208 330,465.36208 C332.77,465.36208 335,467.59208 335,470.36208 L335,471.36208 L340,471.36208 L340,470.36208 C340,464.82208 335.54,460.36208 330,460.36208 Z M330,485.3621 C332.77,485.3621 335,487.5921 335,490.3621 L335,500.3621 C335,503.1321 332.77,505.3621 330,505.3621 C327.23,505.3621 325,503.1321 325,500.3621 L325,490.3621 C325,487.5921 327.23,485.3621 330,485.3621 Z" id="rect3163-7-1-7-3-0-78-1-0" fill="#FF5555"></path>
                <path d="M30,90.36218 C30,90.36218 33,97.86218 36.5,102.86218 C40,107.86218 45,112.86218 45,112.86218 C45,112.86218 40,117.86218 36.5,122.86218 C33,127.86218 30,135.36218 30,135.36218 C30,135.36218 27,127.86218 23.5,122.86218 C20,117.86218 15,112.86218 15,112.86218 C15,112.86218 20,107.86218 23.5,102.86218 C27,97.86218 30,90.36218 30,90.36218" id="path3204-24-1-0" fill="#FF5555"></path>
                <path d="M330,405.36218 C330,405.36218 333,412.86218 336.5,417.86218 C340,422.86218 345,427.86218 345,427.86218 C345,427.86218 340,432.86218 336.5,437.86218 C333,442.86218 330,450.36218 330,450.36218 C330,450.36218 327,442.86218 323.5,437.86218 C320,432.86218 315,427.86218 315,427.86218 C315,427.86218 320,422.86218 323.5,417.86218 C327,412.86218 330,405.36218 330,405.36218" id="path3204-24-1-1-6" fill="#FF5555"></path>
                <path d="M90,45.36218 C90,45.36218 96,60.36218 103,70.36218 C110,80.36218 120,90.36218 120,90.36218 C120,90.36218 110,100.36218 103,110.36218 C96,120.36218 90,135.36218 90,135.36218 C90,135.36218 84,120.36218 77,110.36218 C70,100.36218 60,90.36218 60,90.36218 C60,90.36218 70,80.36218 77,70.36218 C84,60.36218 90,45.36218 90,45.36218" id="path3204-24-7-1" fill="#FF5555"></path>
                <path d="M90,165.36218 C90,165.36218 96,180.36218 103,190.36218 C110,200.36218 120,210.36218 120,210.36218 C120,210.36218 110,220.36218 103,230.36218 C96,240.36218 90,255.36218 90,255.36218 C90,255.36218 84,240.36218 77,230.36218 C70,220.36218 60,210.36218 60,210.36218 C60,210.36218 70,200.36218 77,190.36218 C84,180.36218 90,165.36218 90,165.36218" id="path3204-24-3" fill="#FF5555"></path>
                <path d="M90,285.36218 C90,285.36218 96,300.36218 103,310.36218 C110,320.36218 120,330.36218 120,330.36218 C120,330.36218 110,340.36218 103,350.36218 C96,360.36218 90,375.36218 90,375.36218 C90,375.36218 84,360.36218 77,350.36218 C70,340.36218 60,330.36218 60,330.36218 C60,330.36218 70,320.36218 77,310.36218 C84,300.36218 90,285.36218 90,285.36218" id="path3204-24-4-8" fill="#FF5555"></path>
                <path d="M90,405.36218 C90,405.36218 96,420.36218 103,430.36218 C110,440.36218 120,450.36218 120,450.36218 C120,450.36218 110,460.36218 103,470.36218 C96,480.36218 90,495.3622 90,495.3622 C90,495.3622 84,480.36218 77,470.36218 C70,460.36218 60,450.36218 60,450.36218 C60,450.36218 70,440.36218 77,430.36218 C84,420.36218 90,405.36218 90,405.36218" id="path3204-24-0-9" fill="#FF5555"></path>
                <path d="M180,225.36218 C180,225.36218 186,240.36218 193,250.36218 C200,260.36218 210,270.36218 210,270.36218 C210,270.36218 200,280.36218 193,290.36218 C186,300.36218 180,315.36218 180,315.36218 C180,315.36218 174,300.36218 167,290.36218 C160,280.36218 150,270.36218 150,270.36218 C150,270.36218 160,260.36218 167,250.36218 C174,240.36218 180,225.36218 180,225.36218" id="path3204-24-9-3" fill="#FF5555"></path>
                <path d="M270,45.36218 C270,45.36218 276,60.36218 283,70.36218 C290,80.36218 300,90.36218 300,90.36218 C300,90.36218 290,100.36218 283,110.36218 C276,120.36218 270,135.36218 270,135.36218 C270,135.36218 264,120.36218 257,110.36218 C250,100.36218 240,90.36218 240,90.36218 C240,90.36218 250,80.36218 257,70.36218 C264,60.36218 270,45.36218 270,45.36218" id="path3204-24-48-4" fill="#FF5555"></path>
                <path d="M270,165.36218 C270,165.36218 276,180.36218 283,190.36218 C290,200.36218 300,210.36218 300,210.36218 C300,210.36218 290,220.36218 283,230.36218 C276,240.36218 270,255.36218 270,255.36218 C270,255.36218 264,240.36218 257,230.36218 C250,220.36218 240,210.36218 240,210.36218 C240,210.36218 250,200.36218 257,190.36218 C264,180.36218 270,165.36218 270,165.36218" id="path3204-24-8-4" fill="#FF5555"></path>
                <path d="M270,285.36218 C270,285.36218 276,300.36218 283,310.36218 C290,320.36218 300,330.36218 300,330.36218 C300,330.36218 290,340.36218 283,350.36218 C276,360.36218 270,375.36218 270,375.36218 C270,375.36218 264,360.36218 257,350.36218 C250,340.36218 240,330.36218 240,330.36218 C240,330.36218 250,320.36218 257,310.36218 C264,300.36218 270,285.36218 270,285.36218" id="path3204-24-2-6" fill="#FF5555"></path>
                <path d="M270,405.36218 C270,405.36218 276,420.36218 283,430.36218 C290,440.36218 300,450.36218 300,450.36218 C300,450.36218 290,460.36218 283,470.36218 C276,480.36218 270,495.3622 270,495.3622 C270,495.3622 264,480.36218 257,470.36218 C250,460.36218 240,450.36218 240,450.36218 C240,450.36218 250,440.36218 257,430.36218 C264,420.36218 270,405.36218 270,405.36218" id="path3204-24-45-0" fill="#FF5555"></path>
            </g>
        </g>
    </g>
</svg>

<svg width="360" height="540" xmlns="http://www.w3.org/2000/svg"><g transform="translate(0 -.362)" fill-rule="nonzero" fill="none"><rect stroke="#000" fill="#FFF" x=".5" y=".862" width="359" height="539" rx="29.944"/><path d="M30 80.362c5.54 0 10-4.46 10-10v-30c0-5.54-4.46-10-10-10s-10 4.46-10 10v10c0 5.54 4.46 10 10 10 1.823 0 3.532-.499 5-1.344v11.344c0 2.77-2.23 5-5 5s-5-2.23-5-5v-1h-5v1c0 5.54 4.46 10 10 10zm0-25c-2.77 0-5-2.23-5-5v-10c0-2.77 2.23-5 5-5s5 2.23 5 5v10c0 2.77-2.23 5-5 5zM330 460.362c-5.54 0-10 4.46-10 10v30c0 5.54 4.46 10 10 10s10-4.46 10-10v-10c0-5.54-4.46-10-10-10-1.823 0-3.531.499-5 1.344v-11.344c0-2.77 2.23-5 5-5s5 2.23 5 5v1h5v-1c0-5.54-4.46-10-10-10zm0 25c2.77 0 5 2.23 5 5v10c0 2.77-2.23 5-5 5s-5-2.23-5-5v-10c0-2.77 2.23-5 5-5zM30 90.362s3 7.5 6.5 12.5 8.5 10 8.5 10-5 5-8.5 10-6.5 12.5-6.5 12.5-3-7.5-6.5-12.5-8.5-10-8.5-10 5-5 8.5-10 6.5-12.5 6.5-12.5M330 405.362s3 7.5 6.5 12.5 8.5 10 8.5 10-5 5-8.5 10-6.5 12.5-6.5 12.5-3-7.5-6.5-12.5-8.5-10-8.5-10 5-5 8.5-10 6.5-12.5 6.5-12.5M90 45.362s6 15 13 25 17 20 17 20-10 10-17 20-13 25-13 25-6-15-13-25-17-20-17-20 10-10 17-20 13-25 13-25M90 165.362s6 15 13 25 17 20 17 20-10 10-17 20-13 25-13 25-6-15-13-25-17-20-17-20 10-10 17-20 13-25 13-25M90 285.362s6 15 13 25 17 20 17 20-10 10-17 20-13 25-13 25-6-15-13-25-17-20-17-20 10-10 17-20 13-25 13-25M90 405.362s6 15 13 25 17 20 17 20-10 10-17 20-13 25-13 25-6-15-13-25-17-20-17-20 10-10 17-20 13-25 13-25M180 225.362s6 15 13 25 17 20 17 20-10 10-17 20-13 25-13 25-6-15-13-25-17-20-17-20 10-10 17-20 13-25 13-25M270 45.362s6 15 13 25 17 20 17 20-10 10-17 20-13 25-13 25-6-15-13-25-17-20-17-20 10-10 17-20 13-25 13-25M270 165.362s6 15 13 25 17 20 17 20-10 10-17 20-13 25-13 25-6-15-13-25-17-20-17-20 10-10 17-20 13-25 13-25M270 285.362s6 15 13 25 17 20 17 20-10 10-17 20-13 25-13 25-6-15-13-25-17-20-17-20 10-10 17-20 13-25 13-25M270 405.362s6 15 13 25 17 20 17 20-10 10-17 20-13 25-13 25-6-15-13-25-17-20-17-20 10-10 17-20 13-25 13-25" fill="#F55"/></g></svg>
